ufans-frontend-package/public/assets/images/new-home/icon/become-content-creator.svg

<svg width="100" height="92" viewBox="0 0 100 92" fill="none" xmlns="http://www.w3.org/2000/svg">
<g clip-path="url(#clip0_1340_16)">
<path fill-rule="evenodd" clip-rule="evenodd" d="M30.0293 19.1243H87.915C94.5638 19.1243 100 24.5687 100 31.2093V79.8991C100 86.5478 94.5557 91.984 87.915 91.984H30.0293C23.3805 91.984 17.9443 86.5478 17.9443 79.8991V31.2093C17.9443 24.5687 23.3805 19.1243 30.0293 19.1243ZM8.20313 60.1888C8.20313 62.4512 6.36393 64.2904 4.10156 64.2904C1.83919 64.2904 0 62.4512 0 60.1888V16.1865C0 11.735 1.82292 7.68229 4.7526 4.7526C7.68229 1.82292 11.735 0 16.1865 0H69.3848C71.6471 0 73.4863 1.83919 73.4863 4.10156C73.4863 6.36393 71.6471 8.20312 69.3848 8.20312H16.1865C13.9974 8.20312 11.9954 9.09831 10.5469 10.5469C9.09831 11.9954 8.20313 13.9893 8.20313 16.1865V60.1888V60.1888ZM44.1895 60.2458C41.6016 60.2458 39.502 58.1462 39.502 55.5583C39.502 52.9704 41.6016 50.8708 44.1895 50.8708H54.2806V40.7715C54.2806 38.1836 56.3802 36.084 58.9681 36.084C61.556 36.084 63.6556 38.1836 63.6556 40.7715V50.8708H73.7549C76.3428 50.8708 78.4424 52.9704 78.4424 55.5583C78.4424 58.1462 76.3428 60.2458 73.7549 60.2458H63.6637V70.3451C63.6637 72.9329 61.5641 75.0325 58.9762 75.0325C56.3884 75.0325 54.2887 72.9329 54.2887 70.3451V60.2458H44.1895Z" fill="#6661E7"/>
</g>
<defs>
<clipPath id="clip0_1340_16">
<rect width="100" height="91.984" fill="white"/>
</clipPath>
</defs>
</svg>

<svg xmlns="http://www.w3.org/2000/svg" xmlns:xlink="http://www.w3.org/1999/xlink" width="100" height="91.984" viewBox="0 0 100 91.984">
  <defs>
    <clipPath id="clip-path">
      <rect id="Rectangle_1" data-name="Rectangle 1" width="100" height="91.984" fill="#e44499"/>
    </clipPath>
  </defs>
  <g id="become-content-creator" clip-path="url(#clip-path)">
    <path id="Path_1" data-name="Path 1" d="M30.029,19.124H87.915A12.123,12.123,0,0,1,100,31.209V79.9A12.123,12.123,0,0,1,87.915,91.984H30.029A12.118,12.118,0,0,1,17.944,79.9V31.209A12.123,12.123,0,0,1,30.029,19.124ZM8.2,60.189a4.1,4.1,0,1,1-8.2,0v-44A16.227,16.227,0,0,1,16.187,0h53.2a4.1,4.1,0,0,1,0,8.2h-53.2A8,8,0,0,0,8.2,16.187v44Zm35.986.057a4.688,4.688,0,0,1,0-9.375H54.281v-10.1a4.688,4.688,0,0,1,9.375,0v10.1h10.1a4.688,4.688,0,0,1,0,9.375H63.664v10.1a4.688,4.688,0,0,1-9.375,0v-10.1Z" fill="#e44499" fill-rule="evenodd"/>
  </g>
</svg>
